icons/cuda.svg

<svg xmlns="http://www.w3.org/2000/svg" viewBox="0 0 32 32">
  <g>
    <path d="M12.49634,10.1601c-.18408,0-.314.01074-.49634.02154V12a7.43072,7.43072,0,0,1,.99115-.06165,7.33467,7.33467,0,0,1,5.33533,2.45655l-2.72071,2.15649c-1.21313-1.92285-1.56817-2.7677-3.60577-3.001v5.46888a4.76428,4.76428,0,0,0,1.48572.23358c3.96911,0,7.66748-4.8465,7.66748-4.8465S17.72583,10.00439,12.49634,10.1601Z" style="fill: #76b900"/>
    <path d="M3.27417,14.62836h.00018A12.46191,12.46191,0,0,1,12,10.18353V8.715c-6.407.48889-12,5.60205-12,5.60205s3.202,8.55908,12,9.33728V22.01251C5.54565,21.25665,3.27417,14.62836,3.27417,14.62836Z" style="fill: #76b900"/>
    <path d="M12,13.53918V12a11.17,11.17,0,0,0-6.2995,2.82837S7.124,19.61938,12,20.44183V19.019a6.48442,6.48442,0,0,1-3.72-3.91266A5.03614,5.03614,0,0,1,12,13.53918Z" style="fill: #76b900"/>
    <path d="M12,5.97437V8.7149l.49634-.03332C19.76343,8.44812,24.50983,14.306,24.50983,14.306S19.06842,20.5531,13.40326,20.5531A8.43558,8.43558,0,0,1,12,20.43079V22a10.74045,10.74045,0,0,0,1.18939.10822c5.27649,0,9.059-2.47779,12.75739-5.479.61255.467,3.12115,1.58966,3.63928,2.07868-3.50983,2.77893-11.6955,5.01324-16.336,5.01324A11.47113,11.47113,0,0,1,12,23.65454V26H32V6Z" style="fill: #76b900"/>
  </g>
</svg>

<svg xmlns="http://www.w3.org/2000/svg" viewBox="0 0 32 32"><path fill="#76b900" d="M12.496 10.16c-.184 0-.314.01-.496.022V12a7.43 7.43 0 0 1 .991-.062 7.335 7.335 0 0 1 5.335 2.457l-2.72 2.156c-1.213-1.922-1.568-2.767-3.606-3v5.468a4.764 4.764 0 0 0 1.486.234c3.969 0 7.667-4.847 7.667-4.847s-3.427-4.402-8.657-4.246Zm-9.222 4.468A12.462 12.462 0 0 1 12 10.184V8.715c-6.407.489-12 5.602-12 5.602s3.202 8.56 12 9.337v-1.641c-6.454-.756-8.726-7.385-8.726-7.385Z"/><path fill="#76b900" d="M12 13.54V12a11.17 11.17 0 0 0-6.3 2.828s1.424 4.791 6.3 5.614v-1.423a6.484 6.484 0 0 1-3.72-3.913A5.036 5.036 0 0 1 12 13.54Zm0-7.566v2.74l.496-.032c7.267-.234 12.014 5.624 12.014 5.624s-5.442 6.247-11.107 6.247A8.436 8.436 0 0 1 12 20.431V22a10.74 10.74 0 0 0 1.19.108c5.276 0 9.058-2.478 12.757-5.479.612.467 3.12 1.59 3.64 2.079-3.51 2.779-11.696 5.013-16.337 5.013a11.471 11.471 0 0 1-1.25-.066V26h20V6Z"/></svg>
